!!!!SEGMENT: pl-wnifc--6730-n--020_sowinski-wojciech--chants-religieux-de-la-pologne-op-93-saint-stanislas-pres-du-tres-haut-notre.krn
!!!cenid: 18xx:4034
!!!COM: Sowiński, Wojciech
!!!COM-rismID: pe30008543
!!!CDT: ~1803-1880/03/05
!!!CNT:
!!!OTL: Chants religieux de la Pologne op. 93
!!!PDT: 1830
!!!AGN:
!!!SMS-siglum: PL-Wnifc
!!!SMS-shelfmark: 6730/n
!!!SMS-shelfwork: 020 W
!!!SMS-variant:
!!!SMS-altvar:
!!!NIFC-rismSourceID: 1001138221
!!!NIFC-rismChildID: 1001138243
!!!NIFC-islandoraID: nifc:213350
!!!URL-pdf-islandora: https://repozytorium.nifc.pl/islandora/object/nifc%3A213350/datastream/PDF/view
!!!URL-scan: https://polish.musicsources.pl/pl/lokalizacje/galeria/druki-muzyczne/16913 @EN{Scan on Polish Music Sources Website} @PL{Skany w portalu Dziedzictwo Muzyki Polskiej w otwartym dostępie}
!!!IIIF:
!!!ONB-nifc: UWAGA: str. 77-80
!!!AIN: 1 calto 2 organ 2 soprn
!!!key: a
**kern	**kern	**dynam	**kern	**text	**dynam	**kern	**text	**dynam	**kern	**text	**dynam
*part5	*part4	*part4	*part3	*part3	*part3	*part2	*part2	*part2	*part1	*part1	*part1
*staff5	*staff4	*	*staff3	*staff3	*	*staff2	*staff2	*	*staff1	*staff1	*
*I"Organo	*I"ORGUE.	*	*I"CONTRALTO.	*	*	*I"2o. DESSUS.	*	*	*I"1er. DESSUS.	*	*
*	*I'org	*	*I'CA	*	*	*I'2 D	*	*	*I'1 D	*	*
*Iorgan	*Iorgan	*	*Icalto	*	*	*Isoprn	*	*	*Isoprn	*	*
*ICklav	*ICklav	*	*ICvox	*	*	*ICvox	*	*	*ICvox	*	*
*clefF4	*clefG2	*	*clefG2	*	*	*clefG2	*	*	*clefG2	*	*
*k[]	*k[]	*	*k[]	*	*	*k[]	*	*	*k[]	*	*
*a:	*a:	*	*a:	*	*	*a:	*	*	*a:	*	*
*M4/4	*M4/4	*	*M4/4	*	*	*M4/4	*	*	*M4/4	*	*
*met(c)	*met(c)	*	*met(c)	*	*	*met(c)	*	*	*met(c)	*	*
=1	=1	=1	=1	=1	=1	=1	=1	=1	=1	=1	=1
!	!LO:TX:a:t=Lento dolente.	!	!	!	!	!	!	!	!LO:TX:a:t=Lento dolente.	!	!
4A\	2a\	p	1r	.	.	1r	.	.	1r	.	.
4e\	.	.	.	.	.	.	.	.	.	.	.
4G#X\	2b\	<	.	.	.	.	.	.	.	.	.
8qd#X/	.	.	.	.	.	.	.	.	.	.	.
4e\	.	.	.	.	.	.	.	.	.	.	.
=2	=2	=2	=2	=2	=2	=2	=2	=2	=2	=2	=2
4A\	2cc\	.	1r	.	.	1r	.	.	1r	.	.
4e\	.	.	.	.	.	.	.	.	.	.	.
4E\	2b\	[	.	.	.	.	.	.	.	.	.
8qd#X/	.	.	.	.	.	.	.	.	.	.	.
4e\	.	.	.	.	.	.	.	.	.	.	.
=3	=3	=3	=3	=3	=3	=3	=3	=3	=3	=3	=3
(4A\	(4cc\	<	1r	.	.	1r	.	.	1r	.	.
4G#X\	4b\	.	.	.	.	.	.	.	.	.	.
4B\	4dd\	[ >	.	.	.	.	.	.	.	.	.
4A\)	4cc\)	]]	.	.	.	.	.	.	.	.	.
=4	=4	=4	=4	=4	=4	=4	=4	=4	=4	=4	=4
((2E\	((2d/ [2e 2g#X 2b	sf >	1r	.	.	1r	.	.	1r	.	.
4AA\)) 4A	4c/)) 4e] 4a	]	.	.	.	.	.	.	.	.	.
4r	4r	.	.	.	.	.	.	.	.	.	.
=5	=5	=5	=5	=5	=5	=5	=5	=5	=5	=5	=5
!	!	!	!	!	!LO:DY:a	!	!	!LO:DY:a	!	!	!LO:DY:a
2A\	2c/ 2e 2a	p	2c\	Près	p	2a\	Près	p	2a\	Près	p
!	!LO:TX:b:t=legato.	!	!	!	!	!	!	!	!	!	!
2E\	2e/ 2g#X 2b	.	4e/	du	.	4g#X/	du	.	4b\	du	.
.	.	.	4e/	très-	.	4g#/	très	.	4b\	très	.
!LO:LB:g=original	!LO:LB:g=original	!	!LO:LB:g=original	!	!	!LO:LB:g=original	!	!	!LO:LB:g=original	!	!
=6	=6	=6	=6	=6	=6	=6	=6	=6	=6	=6	=6
2AA/	2e/ 2a 2cc	.	2a/	haut	.	2a/	haut	.	2cc\	haut	.
*	*	*above	*	*	*	*	*	*	*	*	*
2E\	2e/ 2g#X 2b	<	2e/	notre	.	2g#X/	notre	.	2b\	notre	.
=7	=7	=7	=7	=7	=7	=7	=7	=7	=7	=7	=7
*^	*	*	*	*	*	*	*	*	*	*	*
!	!	!	!	!	!	!	!	!	!LO:DY:a	!	!	!LO:DY:a
(4A/	2.AA\	(4e\ 4a 4cc	.	4a/	u-	.	4a/	u-	<	4cc\	u-	<
4E/	.	4e\ 4g#X 4b	.	4e/	-nique	.	4g#X/	-nique	.	4b\	-ni-	.
*	*	*	*above	*	*	*	*	*	*	*	*	*
4G#X/	.	4e\ 4b 4dd	[ >	4e/	e-	.	4b/	e-	[ >	4dd\	-que e-	[ >
4A/)	4AA\	4e\) 4a 4cc	.	4e/	-spé-	.	4a/	-spé-	]]	4cc\	-spé-	]]
*v	*v	*	*	*	*	*	*	*	*	*	*	*
=8	=8	=8	=8	=8	=8	=8	=8	=8	=8	=8	=8
*	*^	*	*	*	*	*	*	*	*	*	*
*	*	*	*below	*	*	*	*	*	*	*	*	*
2EE\ 2E	2g#X/ 2b	4e\	]>	(4e/	-ran-	.	2g#X/	-ran-	.	2b\	-ran-	.
.	.	4d\	.	4d/)	.	.	.	.	.	.	.	.
2AA\	2a/	2c\	]	2c/	-ce	.	2a/	-ce	.	2a\	-ce	.
*	*v	*v	*	*	*	*	*	*	*	*	*	*
=9	=9	=9	=9	=9	=9	=9	=9	=9	=9	=9	=9
2A\	2c/ 2e 2a	] p	2c/	Des	.	2a/	Des	.	2a\	Des	.
2E\	2e/ 2g#X 2b	.	4e/	Po-	.	4g#X/	Po-	.	4b\	Po-	.
.	.	.	4e/	-lo-	.	4g#/	-lo-	.	4b\	-lo-	.
=10	=10	=10	=10	=10	=10	=10	=10	=10	=10	=10	=10
2AA/	2e/ 2a 2cc	.	2a/	-nais	.	2a/	-nais	.	2cc\	-nais	.
*	*	*above	*	*	*	*	*	*	*	*	*
2E\	2e/ 2g#X 2b	<	2e/	re-	.	2g#X/	re-	.	2b\	re-	.
=11	=11	=11	=11	=11	=11	=11	=11	=11	=11	=11	=11
*^	*	*	*	*	*	*	*	*	*	*	*
!	!	!	!	!	!	!LO:DY:a	!	!	!LO:DY:a	!	!	!LO:DY:a
4A/	2.AA\	4e\ 4a 4cc	.	4a/	-gar-	<	4a/	-gar-	<	4cc\	-gar-	<
4E/	.	4e\ 4g#X 4b	.	4e/	-de	.	4g#X/	-de	.	4b\	-de	.
!	!	!	!LO:DY:a	!	!	!LO:DY:a	!	!	!LO:DY:a	!	!	!LO:DY:a
4G#X/	.	4e\ 4b 4dd	[ >	4g#X/	la	[ >	4b/	la	[ >	4dd\	la	[ >
4A/	4AA\	4e\ 4a 4cc	]]	4a/	souf-	]]	4a/	souf-	]]	4cc\	souf-	]]
!LO:PB:g=original	!LO:PB:g=original	!LO:PB:g=original	!	!LO:PB:g=original	!	!	!LO:PB:g=original	!	!	!LO:PB:g=original	!	!
*v	*v	*	*	*	*	*	*	*	*	*	*	*
=12	=12	=12	=12	=12	=12	=12	=12	=12	=12	=12	=12
*	*^	*	*	*	*	*	*	*	*	*	*
2EE\ 2E	2g#X/ 2b	4e\	.	(>4e/	-fran-	.	2g#X/	-fran-	.	2b\	-fran-	.
.	.	4d\	.	4d/)	.	.	.	.	.	.	.	.
!	!	!	!	!	!	!	!	!	!LO:DY:a	!	!	!LO:DY:a
2AA\	2a/	2c\	.	4c/	-ce	.	4a/	-ce	p	4a\	-ce	p
.	.	.	.	4r	.	.	4r	.	.	4r	.	.
*	*v	*v	*	*	*	*	*	*	*	*	*	*
=13||	=13||	=13||	=13||	=13||	=13||	=13||	=13||	=13||	=13||	=13||	=13||
!	!	!	!	!	!LO:DY:a	!	!	!LO:DY:a	!	!	!LO:DY:a
*	*	*below	*	*	*	*	*	*	*	*	*
4CC/ 4C	2gn\ 2ee	f	4c/	Saint	f	4gn/	Saint	f	4ee\	Saint	f
4EE/ 4E	.	.	8c/	Sta-	.	8g/	Sta-	.	8ee\	Sta-	.
.	.	.	8c/	-ni-	.	8g/	-ni-	.	8ee\	-ni-	.
4.GG\ 4.G	(4.f\ 4.g 4.dd	.	(>4.B/	-slas	.	(4.g/	-slas	.	(4.dd\	-slas	.
8E\	8e\) 8g#X 8b	.	8e/)	.	.	8g#X/)	.	.	8b\)	.	.
=14	=14	=14	=14	=14	=14	=14	=14	=14	=14	=14	=14
!	!	!LO:HP:b:t=decres.	!	!	!LO:DY:a	!	!	!LO:DY:a	!	!	!LO:DY:a
2AA\ 2A	(2e\ 2cc	>	4a/	sois	>	4a/	sois	>	4cc\	sois	>
.	.	.	8a/	a-	.	8a/	a-	.	8cc\	a-	.
.	.	.	8a/	-vec	.	8a/	-vec	.	8cc\	-vec	.
8E\L	4e\ 4g#X 4b	.	(4e/	nous	.	(4g#X/	nous	.	(4b\	nous	.
8D\J	.	.	.	.	.	.	.	.	.	.	.
4C\	4e\) 4a	.	4a/)	.	]]	4a/)	.	]]	4a\)	.	]]
=15	=15	=15	=15	=15	=15	=15	=15	=15	=15	=15	=15
!	!	!	!	!	!LO:DY:a	!	!	!LO:DY:a	!	!	!LO:DY:a
4CC\ 4C	4gn\ 4ee	f	4c/	Nous	f	4gn/	Nous	f	4ee\	Nous	f
8EE\L 8E	8cc\L 8ee	.	8e/	t'im-	.	8g/	t'im-	.	8ee\	t'im-	.
8FF\J 8F	8cc\J 8ee	.	8f/	-plo-	.	8g/	-plo-	.	8ee\	-plo-	.
4.GG\ 4.G	4.g\ 4.b 4.dd	.	(4.g/	-rons	.	(4.g/	-rons	.	(4.dd\	-rons	.
8G#X\	8f\ 8b	.	8g#X/)	.	.	8g#X/)	.	.	8b\)	.	.
!LO:LB:g=original	!LO:LB:g=original	!	!LO:LB:g=original	!LO:LB:g=original	!	!LO:LB:g=original	!	!	!LO:LB:g=original	!	!
=16	=16	=16	=16	=16	=16	=16	=16	=16	=16	=16	=16
!	!	!	!	!	!	!	!	!	!	!	!LO:DY:a
4.AA\ 4.A	4e\ 4a 4cc	>	4a/	tous	.	4a/	tous	.	4cc\	tous	p
.	8e\L 8a 8cc	.	8a/	à	.	8a/	à	.	8cc\	à	.
8AA\ 8A	8e\J 8a 8cc	]	8a/	ge-	.	8a/	ge-	.	8cc\	ge-	.
8E\L	4e\ 4g#X 4b	p	(>4e/	-noux	.	(>4g#X/	-noux	.	(4b\	-noux	.
8D\J	.	.	.	.	.	.	.	.	.	.	.
8C\L	4e\ 4a	.	4c/)	.	.	4a/)	.	.	4a\)	.	.
8BB\J	.	.	.	.	.	.	.	.	.	.	.
=17	=17	=17	=17	=17	=17	=17	=17	=17	=17	=17	=17
*	*^	*	*	*	*	*	*	*	*	*	*
!	!LO:TX:b:t=più lento.	!	!	!	!	!LO:DY:a	!	!	!LO:DY:a	!LO:TX:a:t=più lento	!	!LO:DY:a
2AA\ 2A	4a/	2e\	<	2a/	Pi-	<	2a/	Pi-	<	4a\	Pi-	<
.	4a/ 4cc	.	.	.	.	.	.	.	.	4cc\	-ti-	.
!	!	!	!	!	!	!LO:DY:a	!	!	!LO:DY:a	!	!	!LO:DY:a
2EE\ 2E	4g#X\ 4ee	2ryy	[	4e/	-tié	[ >	4g#X/	-tié	[ >	4ee\	-é	[ >
.	4d/ 4e 4g#	.	.	4d/	pour	]]	4e/	pour	]]	4g#X\	pour	]]
*	*v	*v	*	*	*	*	*	*	*	*	*	*
=18	=18	=18	=18	=18	=18	=18	=18	=18	=18	=18	=18
!	!	!	!	!	!LO:DY:a	!	!	!LO:DY:a	!	!	!LO:DY:a
2AA\ 2A	2c/ 2e 2a	.	2c/	nous	p	2e/	nous	p	2a\	nous	p
2r	4a^\	.	2r	.	.	2r	.	.	2r	.	.
.	4a^\	.	.	.	.	.	.	.	.	.	.
=19	=19	=19	=19	=19	=19	=19	=19	=19	=19	=19	=19
4A\	(8a\L	<	1r	.	.	1r	.	.	1r	.	.
.	8cc\J)	.	.	.	.	.	.	.	.	.	.
(8e\L	(8cc\L	.	.	.	.	.	.	.	.	.	.
8d\J	8ee\J)	.	.	.	.	.	.	.	.	.	.
4c\)	4ee\	.	.	.	.	.	.	.	.	.	.
4B\	4dd\ 4ee 4gg#X	[[	.	.	.	.	.	.	.	.	.
=20	=20	=20	=20	=20	=20	=20	=20	=20	=20	=20	=20
((2E\ 2B	((2dd\ 2ee 2gg	sf >	1r	.	.	1r	.	.	1r	.	.
4AA\)) 4A	4cc\)) 4ee 4aa	]	.	.	.	.	.	.	.	.	.
4r	4r	.	.	.	.	.	.	.	.	.	.
!LO:LB:g=original	!LO:LB:g=original	!	!	!LO:LB:g=original	!	!	!LO:LB:g=original	!	!	!LO:LB:g=original	!
=21||	=21||	=21||	=21||	=21||	=21||	=21||	=21||	=21||	=21||	=21||	=21||
!	!	!	!	!	!LO:DY:a	!	!	!LO:DY:a	!LO:TX:a:t=2me. STROPHE.	!	!LO:DY:a
2A\	2c/ 2e 2g	p	2c/	Sur	f	2a/	Sur	f	2a\	Sur	f
!	!LO:TX:b:t=legato	!	!	!	!	!	!	!	!	!	!
2E\	2e/ 2g#X 2b	.	4e/	ton	.	4g#X/	ton	.	4b\	ton	.
.	.	.	4e/	pa-	.	4g#/	pa-	.	4b\	pa-	.
=22	=22	=22	=22	=22	=22	=22	=22	=22	=22	=22	=22
2AA/	2e/ 2a 2cc	.	2a/	-ys	.	2a/	-ys	.	2cc\	-ys	.
*	*	*above	*	*	*	*	*	*	*	*	*
2E\	2e/ 2g#X 2b	<	2e/	ta	.	2g#X/	ta	.	2b\	ta	.
=23	=23	=23	=23	=23	=23	=23	=23	=23	=23	=23	=23
*^	*	*	*	*	*	*	*	*	*	*	*
!	!	!	!	!	!	!LO:DY:a	!	!	!LO:DY:a	!	!	!LO:DY:a
(4A/	2.AA\	(4e\ 4a 4cc	.	4e/	bril-	<	4a/	bril-	<	4cc\	bril-	<
4E/	.	4e\ 4g#X 4b	.	4e/	-lan-	.	4g#X/	-lan-	.	4b\	-lan-	.
!	!	!	!LO:DY:a	!	!	!LO:DY:a	!	!	!LO:DY:a	!	!	!LO:DY:a
4G#X/	.	4e\ 4b 4dd	[ >	4e/	-te	[ >	4b/	-te	[ >	4dd\	-te	[ >
4A/)	4AA\	4e\) 4a 4cc	]]	4e/	cou-	]]	4a/	cou-	]]	4cc\	cou-	]]
*v	*v	*	*	*	*	*	*	*	*	*	*	*
=24	=24	=24	=24	=24	=24	=24	=24	=24	=24	=24	=24
*	*^	*	*	*	*	*	*	*	*	*	*
*	*	*	*below	*	*	*	*	*	*	*	*	*
2EE\ 2E	2g#X/ 2b	4e\	>	4e/	-ron-	.	2g#X/	-ron-	.	2b\	-ron-	.
.	.	4d\	.	4d/	.	.	.	.	.	.	.	.
!	!	!	!	!	!	!LO:DY:a	!	!	!LO:DY:a	!	!	!LO:DY:a
2AA\	2a/	2c\	]	2c/	-ne	p	2a/	-ne	p	2a\	-ne	p
*	*v	*v	*	*	*	*	*	*	*	*	*	*
=25	=25	=25	=25	=25	=25	=25	=25	=25	=25	=25	=25
!	!	!	!	!	!LO:DY:a	!	!	!LO:DY:a	!	!	!LO:DY:a
2AA\ 2A	2c/ 2e 2a	fp	2c/	S'ir-	f	2a/	S'ir-	f	2a\	S'ir-	f
4E\	4e/ 4g#X 4b	.	4e/	-ra-	.	4g#X/	-ra-	.	4b\	-ra-	.
4E\	4e/ 4g# 4b	.	4e/	-di-	.	4g#/	-di-	.	4b\	-di-	.
=26	=26	=26	=26	=26	=26	=26	=26	=26	=26	=26	=26
2AA\ 2A	2e\ 2a 2cc	.	2e/	-ant	.	2a/	-ant	.	2cc\	-ant	.
2E\	2e\ 2g#X 2b	.	2e/	du	.	2g#X/	du	.	2b\	du	.
!LO:LB:g=original	!LO:LB:g=original	!	!LO:LB:g=original	!	!	!LO:LB:g=original	!	!	!LO:LB:g=original	!	!
=27	=27	=27	=27	=27	=27	=27	=27	=27	=27	=27	=27
*^	*^	*	*	*	*	*	*	*	*	*	*
!	!	!	!	!	!	!	!LO:DY:a	!	!	!LO:DY:a	!	!	!LO:DY:a
4AA\ 4A	2ryy	4a/ 4cc	2e\	<	4a/	haut	<	4a/	haut	<	4cc\	haut	<
4E\	.	4g#X/ 4b	.	.	4e/	des	.	4g#X/	des	.	4b\	des	.
!	!	!	!	!	!	!	!LO:DY:a	!	!	!LO:DY:a	!	!	!LO:DY:a
4G#X/	2AA\	4b/ 4dd	4e\	[ >	4d/	cieux	[ >	4b/	cieux	[ >	4dd\	cieux	[ >
4A/	.	4a/ 4cc	4e\	.	4d#X/	ray-	]]	4a/	ray-	]]	4cc\	ray-	]]
*v	*v	*	*	*	*	*	*	*	*	*	*	*	*
=28	=28	=28	=28	=28	=28	=28	=28	=28	=28	=28	=28	=28
2EE\ 2E	2g#X/ 2b	4e\	]	2e/	-on-	.	2g#X/	-on-	.	2b\	-on-	.
.	.	4d\	.	.	.	.	.	.	.	.	.	.
2AA\	2a/	2c\	.	4a/	-ne	.	4a/	-ne	.	4a\	-ne	.
.	.	.	.	4r	.	.	4r	.	.	4r	.	.
*	*v	*v	*	*	*	*	*	*	*	*	*	*
=29||	=29||	=29||	=29||	=29||	=29||	=29||	=29||	=29||	=29||	=29||	=29||
!	!	!	!	!	!LO:DY:a	!	!	!LO:DY:a	!	!	!LO:DY:a
4CC/ 4C	4gn\ 4ee	p	4c/	O	p	4gn/	O	p	4ee\	O	p
4CC/ 4C	8g\L 8ee	.	8c/	saint	.	8g/	saint	.	8ee\	saint	.
.	8g\J 8ee	.	8c/	mar-	.	8g/	mar-	.	8ee\	mar-	.
4.GG\ 4.G	4.f\ 4.g 4.b 4.dd	sf	(>4.B/	-tyr	.	(4.g/	-tyr	.	(4.dd\	-tyr	.
8E\	8e\ 8g#X 8b	.	8e/)	.	.	8g#X/)	.	.	8b\)	.	.
=30	=30	=30	=30	=30	=30	=30	=30	=30	=30	=30	=30
4AA\ 4A	4e\ 4a 4cc	.	4a/	que	.	4a/	que	.	4cc\	que	.
4AA\ 4A	8e\L 8a 8cc	.	8a/	cha-	.	8a/	cha-	.	8cc\	cha-	.
.	8e\J 8a 8cc	.	8a/	-que	.	8a/	-que	.	8cc\	-que	.
8E\L	4e\ 4g#X 4b	p	(8e/L	jour	.	(4g#X/	jour	.	(4b\	jour	.
8D\J	.	.	8d/J)	.	.	.	.	.	.	.	.
4C\ 4A	4e\ 4a	.	4c/	.	.	4a/)	.	.	4a\)	.	.
!LO:LB:g=original	!LO:LB:g=original	!	!LO:LB:g=original	!	!	!LO:LB:g=original	!	!	!LO:LB:g=original	!	!
=31	=31	=31	=31	=31	=31	=31	=31	=31	=31	=31	=31
!	!	!	!	!	!LO:DY:a	!	!	!LO:DY:a	!	!	!LO:DY:a
4CC/ 4C	4e\ 4gn 4ee	f	4c/	Pour	f	4gn/	Pour	f	4ee\	Pour	f
8EE\L 8E	8cc\L 8ee	.	8e/	nous	.	8g/	nous	.	8ee\	nous	.
8FF\J 8F	8cc\J 8ee	.	8f/	crois-	.	8g/	crois-	.	8ee\	crois-	.
4.GG\ 4.G	4.b\ 4.dd	sf	(4.g/	-se	.	(4.g/	-se	.	(4.dd\	-se	.
8G#X\	8e\ 8b	.	8g#X/)	.	.	8g#X/)	.	.	8b\)	.	.
=32	=32	=32	=32	=32	=32	=32	=32	=32	=32	=32	=32
!	!	!	!	!	!LO:HP:t=decres	!	!	!LO:HP:t=decres	!	!	!
4AA\ 4A	(>4e/ 4a 4cc	.	4a/	ton	>	4a/	ton	>	4cc\	ton	.
!	!	!	!	!	!	!	!	!	!	!	!LO:HP:t=decres
4CC/ 4C	4e/ 4a 4cc	>	4c/	a-	.	4a/	a-	.	4cc\	a-	>
4DD/ 4D	4f/ 4b	.	4d/	-mour	.	4f/	-mour	.	4b\	-mour	.
4DD#X/ 4D#X	4f#X/) 4a	]]	4d#X/	Pro-	.	4f#X/	Pro-	.	4a\	Pro-	.
=33	=33	=33	=33	=33	=33	=33	=33	=33	=33	=33	=33
*	*^	*	*	*	*	*	*	*	*	*	*
!	!	!	!	!	!	!LO:DY:a	!	!	!LO:DY:a	!	!	!LO:DY:a
2EE/ 2E	4a/	2e\	<	4e/	-tè-	<	4a/	-tè-	<	4a\	-tè-	<
.	4cc/	.	.	4e/	-ge	.	4a/	-ge	.	4cc\	-ge	.
!	!	!	!	!	!	!LO:DY:a	!	!	!LO:DY:a	!	!	!LO:DY:a
2EE/ 2E	4.g#X/ 4.ee	4.e\	[	4.e/	nous	[ >	4.g#X/	nous	[ >	4.ee\	nous	[ >
.	8e/ 8g#	8d\	.	8dn/	tou-	]]	8e/	tou-	]]	8g#X/	tou-	]]
=34	=34	=34	=34	=34	=34	=34	=34	=34	=34	=34	=34	=34
2AA\ 2A	2e/ 2a	2c/	p	2c/	-jours	.	2a/	-jours	.	2a/	-jours	.
4EE/ 4E	4g#X/	2e\	<	2r	.	.	2r	.	.	2r	.	.
4DD/ 4D	4b/	.	.	.	.	.	.	.	.	.	.	.
!LO:LB:g=original	!LO:LB:g=original	!LO:LB:g=original	!	!LO:LB:g=original	!	!	!LO:LB:g=original	!	!	!LO:LB:g=original	!	!
*	*v	*v	*	*	*	*	*	*	*	*	*	*
=35	=35	=35	=35	=35	=35	=35	=35	=35	=35	=35	=35
2CC/ 2C	(4e\ 4ee	[ >	1r	.	.	1r	.	.	1r	.	.
.	4a\)	]	.	.	.	.	.	.	.	.	.
2BBB/ 2BB	(4e\ 4ee	>	.	.	.	.	.	.	.	.	.
.	4g#X\)	]	.	.	.	.	.	.	.	.	.
=36||	=36||	=36||	=36||	=36||	=36||	=36||	=36||	=36||	=36||	=36||	=36||
!	!LO:TX:b:t=legato.	!	!	!	!LO:DY:a	!	!	!LO:DY:a	!LO:TX:a:t=3me. STROPHE.	!	!LO:DY:a
2A\	2c/ 2e 2a	p	2c/	De	p	2a/	De	p	2a\	De	p
2E\	2e/ 2g#X 2b	.	4e/	no-	.	4g#X/	no-	.	4b\	no-	.
.	.	.	4e/	-tre	.	4g#/	-tre	.	4b\	-tre	.
=37	=37	=37	=37	=37	=37	=37	=37	=37	=37	=37	=37
2AA/	2e/ 2a 2cc	.	2a/	foi	.	2a/	foi	.	2cc\	foi	.
*	*	*above	*	*	*	*	*	*	*	*	*
2E\	2e/ 2g#X 2b	<	2e/	toi	.	2g#X/	toi	.	2b\	toi	.
=38	=38	=38	=38	=38	=38	=38	=38	=38	=38	=38	=38
*^	*	*	*	*	*	*	*	*	*	*	*
!	!	!	!	!	!	!LO:DY:a	!	!	!LO:DY:a	!	!	!LO:DY:a
(4A/	2.AA\	(4e\ 4a 4cc	.	4a/	le	<	4a/	le	<	4cc\	le	<
4E/	.	4e\ 4g#X 4b	.	4e/	gar-	.	4g#X/	gar-	.	4b\	gar-	.
!	!	!	!LO:DY:a	!	!	!LO:DY:a	!	!	!LO:DY:a	!	!	!LO:DY:a
4G#X/	.	4e\ 4b 4dd	[ >	4e/	-dien	[ >	4b/	-dien	[ >	4dd\	-dien	[ >
4A/)	4AA\	4e\) 4a 4cc	]]	4e/	fi-	]]	4a/	fi-	]]	4cc\	fi-	]]
*v	*v	*	*	*	*	*	*	*	*	*	*	*
=39	=39	=39	=39	=39	=39	=39	=39	=39	=39	=39	=39
*	*^	*	*	*	*	*	*	*	*	*	*
*	*	*	*below	*	*	*	*	*	*	*	*	*
2EE\ 2E	2g#X/ 2b	4e\	>	4e/	-dè-	.	2g#X/	-dè-	.	2b\	-dè-	.
.	.	4d\	.	4dn/	.	.	.	.	.	.	.	.
2AA\	2a/	2c\	]	2c/	-le	.	2a/	-le	.	2a\	-le	.
!LO:PB:g=original	!LO:PB:g=original	!LO:PB:g=original	!	!LO:PB:g=original	!	!	!LO:PB:g=original	!	!	!LO:PB:g=original	!	!
*	*v	*v	*	*	*	*	*	*	*	*	*	*
=40	=40	=40	=40	=40	=40	=40	=40	=40	=40	=40	=40
2A\	2c/ 2e 2a	p	2c/	Vois	.	2a/	Vois	.	2a\	Vois	.
2E\	2e/ 2g#X 2b	.	4e/	ton	.	4g#X/	ton	.	4b\	ton	.
.	.	.	4e/	E-	.	4g#/	E-	.	4b\	E-	.
=41	=41	=41	=41	=41	=41	=41	=41	=41	=41	=41	=41
2AA/	2e/ 2a 2cc	.	2a/	-glise	.	2a/	-glise	.	2cc\	-glise	.
*	*	*above	*	*	*	*	*	*	*	*	*
2E\	2e/ 2g#X 2b	<	2e/	et	.	2g#X/	et	.	2b\	et	.
=42	=42	=42	=42	=42	=42	=42	=42	=42	=42	=42	=42
*^	*	*	*	*	*	*	*	*	*	*	*
!	!	!	!	!	!	!LO:DY:a	!	!	!LO:DY:a	!	!	!LO:DY:a
4A/	2.AA\	4e/ 4a 4cc	.	4a/	prends	<	4a/	prends	<	4cc\	prends	<
4E/	.	4e/ 4g#X 4b	.	4e/	la	.	4g#X/	la	.	4b\	la	.
!	!	!	!LO:DY:a	!	!	!LO:DY:a	!	!	!LO:DY:a	!	!	!LO:DY:a
4G#X/	.	4e/ 4b 4dd	[ >	4e/	sous	[ >	4b/	sous	[ >	4dd\	sous	[ >
4A/	4AA\	4e/ 4a 4cc	]]	4e/	ton	]]	4a/	ton	]]	4cc\	ton	]]
*v	*v	*	*	*	*	*	*	*	*	*	*	*
=43	=43	=43	=43	=43	=43	=43	=43	=43	=43	=43	=43
*	*^	*	*	*	*	*	*	*	*	*	*
2EE\ 2E	2g#X/ 2b	4e\	.	(>4e/	ai-	.	2g#X/	ai-	.	2b\	ai-	.
.	.	4d\	.	4dn/)	.	.	.	.	.	.	.	.
2AA\	2a/	2c\	.	2c/	-le	.	2a/	-le	.	2a\	-le	.
!LO:LB:g=original	!LO:LB:g=original	!LO:LB:g=original	!	!LO:LB:g=original	!	!	!LO:LB:g=original	!	!	!LO:LB:g=original	!	!
*	*v	*v	*	*	*	*	*	*	*	*	*	*
=44	=44	=44	=44	=44	=44	=44	=44	=44	=44	=44	=44
!	!	!	!	!	!LO:DY:a	!	!	!LO:DY:a	!	!	!LO:DY:a
*	*	*below	*	*	*	*	*	*	*	*	*
4CC/ 4C	2gn\ 2ee	f	4c/	Ras-	f	4gn/	Ras-	f	4ee\	Ras-	f
4EE/ 4E	.	.	8c/	-su-	.	8g/	-su-	.	8ee\	-su-	.
.	.	.	8c/	-re	.	8g/	-re	.	8ee\	-re	.
4.GG\ 4.G	4.f\ 4.g 4.dd	.	(>4.B/	nous	.	(>4.g/	nous	.	(4.dd\	nous	.
8E\	8e\ 8g#X 8b	.	8e/)	.	.	8g#X/)	.	.	8b\)	.	.
=45	=45	=45	=45	=45	=45	=45	=45	=45	=45	=45	=45
!	!	!	!	!	!LO:HP:t=decres	!	!	!LO:HP:t=decres	!	!	!LO:HP:t=decres
2AA\ 2A	(2e\ 2cc	.	4a/	sè-	>	4a/	sè-	>	4cc\	sè-	>
.	.	.	8a/	-che	.	8a/	-che	.	8cc\	-che	.
.	.	.	8a/	nos	.	8a/	nos	.	8cc\	nos	.
!	!	!	!	!	!	!	!	!LO:DY:a	!	!	!LO:DY:a
8E\L	4e\ 4g#X 4b	.	(>4e/	pleurs	.	(>4g#X/	pleurs	p	(4b\	pleurs	p
8D\J	.	.	.	.	.	.	.	.	.	.	.
4C\	4e\) 4a	.	4a/)	.	.	4a/)	.	.	4a\)	.	.
=46	=46	=46	=46	=46	=46	=46	=46	=46	=46	=46	=46
!	!	!	!	!	!LO:DY:a	!	!	!LO:DY:a	!	!	!LO:DY:a
4CC/ 4C	4gn\ 4ee	f	4c/	Con-	f	4gn/	Con-	f	4ee\	Con-	f
8EE\L 8E	8cc\L 8ee	.	8c/	-so-	.	8g/	-so-	.	8ee\	-so-	.
8FF\J 8F	8cc\J 8ee	.	8c/	-le	.	8g/	-le	.	8ee\	-le	.
4.GG/ 4.G	4.g\ 4.b 4.dd	.	(4.B/	nous	.	(4.g/	nous	.	(4.dd\	nous	.
8G#X\	8f\ 8b	.	8e/)	.	.	8g#X/)	.	.	8b\)	.	.
!LO:LB:g=original	!LO:LB:g=original	!	!LO:LB:g=original	!	!	!LO:LB:g=original	!	!	!LO:LB:g=original	!	!
=47	=47	=47	=47	=47	=47	=47	=47	=47	=47	=47	=47
4AA\ 4A	4e/ 4a 4cc	.	4A/	dans	.	4a/	dans	.	4cc\	dans	.
4D#X\	4a/ 4cc	.	8d#X/	nos	.	8a/	nos	.	8cc\	nos	.
.	.	.	8d#/	dou-	.	8a/	dou-	.	8cc\	dou-	.
4E\	2g#X/ 2b	.	(>4e/	-leurs	.	2g#X/	-leurs	.	2b\	-leurs	.
4Dn\	.	.	4dn/)	.	.	.	.	.	.	.	.
=48	=48	=48	=48	=48	=48	=48	=48	=48	=48	=48	=48
!	!LO:TX:b:t=lento.	!	!LO:TX:a:t=lento.	!	!	!LO:TX:a:t=lento.	!	!	!LO:TX:a:t=lento.	!	!LO:DY:a
4AA\ 4C 4A	[4a\	.	4c/	Sois	.	4a/	Sois	.	4a/	Sois	<
4FF\ 4F	4a\] 4cc	.	8a/	no-	.	8a/	no-	.	8cc\	no-	.
.	.	.	8f/	-tre	.	8a/	-tre	.	8cc\	-tre	.
2EE\ 2E	4.g#X\ 4.ee	sf	4.e^>/	pro-	.	4.g#X^>/	pro-	.	4.ee^\	pro-	[
.	8d/ 8e 8g#	.	8d/	-tec-	.	8e/	-tec-	.	8g#X/	-tec-	.
=49	=49	=49	=49	=49	=49	=49	=49	=49	=49	=49	=49
2AAA;/ 2AA	2c;/ 2e 2a	.	2c;/	-teur	.	2a;/	-teur	.	2a;/	-teur	.
2r	2r	.	2r	.	.	2r	.	.	2r	.	.
==	==	==	==	==	==	==	==	==	==	==	==
*-	*-	*-	*-	*-	*-	*-	*-	*-	*-	*-	*-
!!!RDF**kern: > = above
!!!RDF**kern: < = below
!!!system-decoration: [(s1,s2,s3)][(s4,s5)]
!!!ENC: Andrzej Gręziak
!!!END: 2022-08-10
!!!ENC: Julita Ruszuk
!!!END: 2022-09-12
!!!YEC: Copyright 2022 Narodowy Instytut Fryderyka Chopina (https://polishscores.org)
!!!YEM: License CC-BY-4.0 (https://creativecommons.org/licenses/by/4.0)
